img/avia.svg

<svg id="avia_svg" viewBox="0 0 70 31" fill="none" xmlns="http://www.w3.org/2000/svg">
<path d="M55.0566 18.7976L38.3472 19.3572C38.3274 19.2068 38.3003 19.0564 38.2634 18.9061L43.3657 17.9152C43.6195 17.8659 43.7921 17.6293 43.76 17.3729C43.728 17.1166 43.5037 16.9317 43.2473 16.9391L37.5066 17.2152C36.7573 16.1035 35.5914 15.2112 34.2505 14.7602L33.0797 6.63347C33.0255 6.27114 32.7149 6 32.3477 6C31.9804 6 31.6698 6.26867 31.6156 6.63347L30.4324 14.7503C29.0768 15.1989 27.8961 16.0986 27.1418 17.2201L21.3173 16.9391C21.0635 16.9317 20.8342 17.1166 20.8046 17.3729C20.7726 17.6293 20.9476 17.8659 21.199 17.9152L26.3851 18.9209C26.3506 19.0663 26.3235 19.2117 26.3038 19.3572L9.51058 18.7976C9.24191 18.7853 9.025 18.9874 9.00282 19.2487C8.98064 19.51 9.16797 19.7441 9.42678 19.7787L14.9506 20.5304C14.3023 20.8533 13.8537 21.5189 13.8537 22.2928C13.8537 23.3774 14.7361 24.2598 15.8207 24.2598C16.9052 24.2598 17.7876 23.3774 17.7876 22.2928C17.7876 21.7111 17.5313 21.1861 17.1271 20.8262L20.8244 21.3291C20.3782 21.6889 20.0948 22.2411 20.0948 22.8573C20.0948 23.9418 20.9772 24.8243 22.0617 24.8243C23.1463 24.8243 24.0287 23.9418 24.0287 22.8573C24.0287 22.4309 23.8907 22.0365 23.659 21.7136L26.7918 22.14C27.0901 22.7858 27.5066 23.4119 28.0193 23.9689C29.2296 25.2778 30.7578 26 32.3255 26C33.8907 26 35.4189 25.2803 36.6316 23.9689C37.1492 23.4094 37.5683 22.7784 37.8665 22.1277L40.9082 21.7136C40.6765 22.0365 40.5384 22.4309 40.5384 22.8573C40.5384 23.9418 41.4209 24.8243 42.5054 24.8243C43.59 24.8243 44.4724 23.9418 44.4724 22.8573C44.4724 22.2411 44.1865 21.6889 43.7428 21.3291L47.4401 20.8262C47.0359 21.1861 46.7795 21.7087 46.7795 22.2928C46.7795 23.3774 47.6619 24.2598 48.7465 24.2598C49.831 24.2598 50.7134 23.3774 50.7134 22.2928C50.7134 21.5213 50.2648 20.8533 49.6166 20.5304L55.1428 19.7787C55.4016 19.7441 55.589 19.51 55.5668 19.2487C55.5421 18.9874 55.3228 18.7878 55.0566 18.7976ZM15.8207 23.2738C15.2784 23.2738 14.8396 22.8326 14.8396 22.2928C14.8396 21.753 15.2809 21.3118 15.8207 21.3118C16.3629 21.3118 16.8017 21.753 16.8017 22.2928C16.8017 22.8326 16.3629 23.2738 15.8207 23.2738ZM22.0617 23.8383C21.5195 23.8383 21.0807 23.3971 21.0807 22.8573C21.0807 22.3175 21.5219 21.8763 22.0617 21.8763C22.604 21.8763 23.0428 22.3175 23.0428 22.8573C23.0428 23.3971 22.6015 23.8383 22.0617 23.8383ZM42.5054 23.8383C41.9631 23.8383 41.5244 23.3971 41.5244 22.8573C41.5244 22.3175 41.9656 21.8763 42.5054 21.8763C43.0452 21.8763 43.4864 22.3175 43.4864 22.8573C43.4864 23.3971 43.0452 23.8383 42.5054 23.8383ZM48.7465 23.2738C48.2042 23.2738 47.7655 22.8326 47.7655 22.2928C47.7655 21.753 48.2067 21.3118 48.7465 21.3118C49.2863 21.3118 49.7275 21.753 49.7275 22.2928C49.7275 22.8326 49.2863 23.2738 48.7465 23.2738ZM32.3452 11.8886L32.6977 14.3214L31.9952 14.3017L32.3452 11.8886ZM19.1704 20.1089L26.289 20.348C26.3136 20.5945 26.3555 20.8435 26.4196 21.0949L19.1704 20.1089ZM32.3279 24.5186C31.0832 24.5186 29.9099 23.8408 29.062 22.9115C30.2722 23.2024 31.3617 23.3503 32.4142 23.3503C33.4914 23.3503 34.5266 23.1974 35.6136 22.8918C34.7632 23.8309 33.5801 24.5186 32.3279 24.5186ZM36.4985 21.5731C36.4665 21.578 36.4344 21.5854 36.4048 21.5977C33.6393 22.6034 31.4652 22.6207 28.1943 21.6569C27.9084 21.085 27.7457 20.491 27.7457 19.9364C27.7457 18.0779 29.7472 15.9187 32.3255 15.9187C34.9062 15.9187 36.9077 18.0779 36.9077 19.9364C36.9077 20.4614 36.7598 21.0283 36.4985 21.5731ZM38.2362 21.0801C38.2979 20.8312 38.3422 20.5847 38.3644 20.3431L45.3967 20.1089L38.2362 21.0801Z" fill="#E5E5E5"/>
<path d="M31.6575 19.3547H30.3782C30.1736 19.3547 30.0085 19.5199 30.0085 19.7245V20.2741C30.0085 20.4787 30.1736 20.6439 30.3782 20.6439H31.6575C31.8621 20.6439 32.0272 20.4787 32.0272 20.2741V19.7245C32.0272 19.5199 31.8621 19.3547 31.6575 19.3547Z" fill="#E5E5E5"/>
<path d="M34.4354 19.3547H33.1561C32.9515 19.3547 32.7864 19.5199 32.7864 19.7245V20.2741C32.7864 20.4787 32.9515 20.6439 33.1561 20.6439H34.4354C34.64 20.6439 34.8051 20.4787 34.8051 20.2741V19.7245C34.8051 19.5199 34.6375 19.3547 34.4354 19.3547Z" fill="#E5E5E5"/>
</svg>

<svg viewBox="0 0 70 31" fill="none" xmlns="http://www.w3.org/2000/svg"><path d="M55.057 18.798l-16.71.56a4.173 4.173 0 0 0-.084-.452l5.103-.99a.49.49 0 0 0 .394-.543.5.5 0 0 0-.513-.434l-5.74.276c-.75-1.111-1.916-2.004-3.256-2.455L33.08 6.633a.74.74 0 0 0-1.464 0l-1.184 8.117c-1.355.449-2.536 1.349-3.29 2.47l-5.825-.28a.493.493 0 1 0-.118.976l5.186 1.005a4.51 4.51 0 0 0-.081.436l-16.793-.56a.487.487 0 0 0-.508.452.493.493 0 0 0 .424.53l5.524.751a1.969 1.969 0 0 0-1.097 1.763 1.97 1.97 0 0 0 1.967 1.967 1.97 1.97 0 0 0 1.967-1.967c0-.582-.257-1.107-.66-1.467l3.696.503a1.96 1.96 0 0 0-.73 1.528 1.97 1.97 0 0 0 1.968 1.967 1.97 1.97 0 0 0 1.967-1.967c0-.426-.138-.82-.37-1.143l3.133.426a7.15 7.15 0 0 0 1.227 1.829C29.23 25.278 30.758 26 32.325 26c1.566 0 3.094-.72 4.307-2.031.517-.56.936-1.19 1.235-1.841l3.041-.414c-.232.323-.37.717-.37 1.143a1.97 1.97 0 0 0 1.967 1.967 1.966 1.966 0 1 0 1.237-3.495l3.698-.503a1.96 1.96 0 0 0-.66 1.467 1.97 1.97 0 0 0 1.966 1.967 1.97 1.97 0 0 0 1.967-1.967c0-.772-.448-1.44-1.096-1.763l5.526-.751a.493.493 0 0 0-.086-.981zM15.82 23.274a.982.982 0 0 1 0-1.962.982.982 0 0 1 0 1.962zm6.24.564a.982.982 0 0 1 0-1.962.982.982 0 0 1 0 1.962zm20.444 0a.982.982 0 0 1 0-1.962c.54 0 .981.441.981.981s-.44.981-.98.981zm6.241-.564a.982.982 0 0 1 0-1.962c.54 0 .981.441.981.98 0 .54-.44.982-.98.982zm-16.4-11.385l.352 2.432-.703-.02.35-2.412zm-13.176 8.22l7.119.239c.025.247.066.495.13.747l-7.249-.986zm13.158 4.41c-1.245 0-2.418-.678-3.266-1.607 1.21.29 2.3.438 3.352.438 1.077 0 2.113-.153 3.2-.458-.85.939-2.034 1.627-3.286 1.627zm4.17-2.946a.404.404 0 0 0-.093.025c-2.766 1.005-4.94 1.023-8.21.059-.287-.572-.45-1.166-.45-1.72 0-1.86 2.002-4.018 4.58-4.018 2.581 0 4.583 2.159 4.583 4.017 0 .525-.148 1.092-.41 1.637zm1.738-.493c.062-.249.106-.495.128-.737l7.033-.234-7.16.971z" fill="#E5E5E5"/><path d="M31.657 19.355h-1.279a.37.37 0 0 0-.37.37v.55a.37.37 0 0 0 .37.369h1.28a.37.37 0 0 0 .37-.37v-.55a.37.37 0 0 0-.37-.37zm2.778 0h-1.279a.37.37 0 0 0-.37.37v.55a.37.37 0 0 0 .37.369h1.28a.37.37 0 0 0 .37-.37v-.55a.37.37 0 0 0-.37-.37z" fill="#E5E5E5"/></svg>
